icons/award_ribbon.svg

<svg width="48" height="48" viewBox="0 0 48 48" fill="none" xmlns="http://www.w3.org/2000/svg">
<path fill-rule="evenodd" clip-rule="evenodd" d="M23.999 6C16.8193 6 10.999 11.8203 10.999 19C10.999 24.4045 14.297 29.0388 18.9902 31H19.0001V31.0041C20.539 31.6457 22.2276 32 23.999 32C25.7712 32 27.4606 31.6454 29.0001 31.0032V31H29.0078C33.701 29.0388 36.999 24.4045 36.999 19C36.999 11.8203 31.1787 6 23.999 6ZM31.0001 32.2693C35.7573 29.7542 38.999 24.7556 38.999 19C38.999 10.7157 32.2833 4 23.999 4C15.7148 4 8.99902 10.7157 8.99902 19C8.99902 24.7565 12.2417 29.7557 17.0001 32.2705V43C17.0001 43.3688 17.2031 43.7077 17.5283 43.8817C17.8534 44.0557 18.248 44.0366 18.5548 43.8321L24.0001 40.2019L29.4454 43.8321C29.7523 44.0366 30.1468 44.0557 30.472 43.8817C30.7971 43.7077 31.0001 43.3688 31.0001 43V32.2693ZM29.0001 33.1461C27.4359 33.6991 25.7526 34 23.999 34C22.2463 34 20.5637 33.6994 19.0001 33.1469V41.1315L23.4454 38.1679C23.7813 37.944 24.2189 37.944 24.5548 38.1679L29.0001 41.1315V33.1461ZM24.0001 12C20.1341 12 17.0001 15.134 17.0001 19C17.0001 22.866 20.1341 26 24.0001 26C27.8661 26 31.0001 22.866 31.0001 19C31.0001 15.134 27.8661 12 24.0001 12ZM15.0001 19C15.0001 14.0294 19.0296 10 24.0001 10C28.9707 10 33.0001 14.0294 33.0001 19C33.0001 23.9706 28.9707 28 24.0001 28C19.0296 28 15.0001 23.9706 15.0001 19Z" fill="black"/>
</svg>

<svg
  xmlns="http://www.w3.org/2000/svg"
  width="24"
  height="24"
  viewBox="0 0 24 24"
  fill="none"
  stroke="currentColor"
  stroke-width="2"
  stroke-linecap="round"
  stroke-linejoin="round"
>
  <path
    fill-rule="evenodd"
    d="M23.999 6c-7.18 0-13 5.82-13 13 0 5.404 3.298 10.039 7.991 12H19v.004A13 13 0 0 0 24 32 13 13 0 0 0 29 31.003V31h.008c4.693-1.961 7.991-6.596 7.991-12 0-7.18-5.82-13-13-13M31 32.27C35.757 29.753 39 24.755 39 19c0-8.284-6.716-15-15-15s-15 6.716-15 15c0 5.756 3.243 10.756 8.001 13.27V43a1 1 0 0 0 1.555.832L24 40.202l5.445 3.63A1 1 0 0 0 31 43zm-2 .876A15 15 0 0 1 24 34c-1.753 0-3.435-.3-4.999-.853v7.985l4.445-2.964a1 1 0 0 1 1.11 0L29 41.132zM24 12a7 7 0 1 0 0 14 7 7 0 0 0 0-14m-9 7a9 9 0 1 1 18 0 9 9 0 0 1-18 0"
    clip-rule="evenodd"
  />
</svg>
